X: 40238
T: Tipsy House
R: reel
M: 4/4
K: Eminor
E2 GE BEGE|D2 FD ADFD|E2 GE BEGE|B/c/B AG B/G/E E2|
E2 GE BEGE|D2 FD ADFD|E2 GE BEGE|B/c/B AG B/G/E E2||
ge e/f/e ge e/f/e|fd d/e/d fd d/e/d|ge e/f/e ge e/f/e|g/f/g bg a/f/d e2|
ge e/f/e ge e/f/e|fd d/e/d fd d/e/d|bgaf g/f/e e2|B/c/B AG B/G/E E2||

